packages/Snapp/src/EyeShowIcon/index.svg

<?xml version="1.0" encoding="UTF-8"?>
<svg width="24px" height="24px" viewBox="0 0 24 24" version="1.1" xmlns="http://www.w3.org/2000/svg" xmlns:xlink="http://www.w3.org/1999/xlink">
    <title>Icons/24/EyeShow</title>
    <g id="Icons/24/EyeShow" stroke="none" stroke-width="1" fill="none" fill-rule="evenodd">
        <rect id="Container" fill-opacity="0" fill="#D8D8D8" fill-rule="nonzero" x="0" y="0" width="24" height="24"></rect>
        <path d="M12,5 C15.6861653,5 18.7069681,6.70622183 20.9834883,10.0508054 L20.9834883,10.0508054 L21.1969325,10.37295 C21.8363145,11.363423 21.836315,12.6365625 21.1969337,13.627036 C18.9037164,17.1794872 15.8085664,19 12,19 C8.31383472,19 5.29303187,17.2937782 3.01651171,13.9491946 L3.01651171,13.9491946 L2.80306752,13.62705 C2.16368548,12.636577 2.16368501,11.3634375 2.80306631,10.372964 C5.09628357,6.82051282 8.19143359,5 12,5 Z M12,7 C8.89684156,7 6.42080588,8.45636064 4.48337658,11.4576563 C4.27024854,11.7878156 4.2702487,12.2121973 4.47673935,12.5322095 L4.47673935,12.5322095 L4.67669149,12.8340032 C6.5848947,15.6373558 8.99740597,17 12,17 C15.1031584,17 17.5791941,15.5436394 19.5166234,12.5423437 C19.7297515,12.2121844 19.7297513,11.7878027 19.5232606,11.4677905 L19.5232606,11.4677905 L19.3233085,11.1659968 C17.4151053,8.36264417 15.002594,7 12,7 Z M12,9 C13.6568542,9 15,10.3431458 15,12 C15,13.6568542 13.6568542,15 12,15 C10.3431458,15 9,13.6568542 9,12 C9,10.3431458 10.3431458,9 12,9 Z M12,11 C11.4477153,11 11,11.4477153 11,12 C11,12.5522847 11.4477153,13 12,13 C12.5522847,13 13,12.5522847 13,12 C13,11.4477153 12.5522847,11 12,11 Z" id="Combined-Shape" fill="#404040"></path>
    </g>
</svg>

<svg viewBox="0 0 24 24" xmlns="http://www.w3.org/2000/svg" fill="currentColor" focusable="false">
  <path d="M12 5c3.686 0 6.707 1.706 8.983 5.05l.214.323a3 3 0 010 3.254C18.904 17.179 15.809 19 12 19c-3.686 0-6.707-1.706-8.983-5.05l-.214-.323a3 3 0 010-3.254C5.096 6.821 8.191 5 12 5zm0 2c-3.103 0-5.58 1.456-7.517 4.458a.996.996 0 00-.006 1.074l.2.302C6.585 15.637 8.997 17 12 17c3.103 0 5.58-1.456 7.517-4.458a.996.996 0 00.006-1.074l-.2-.302C17.415 8.363 15.003 7 12 7zm0 2a3 3 0 110 6 3 3 0 010-6zm0 2a1 1 0 100 2 1 1 0 000-2z" fill="none"/>
</svg>
